X: 19379
T: Jack's The Lad
R: hornpipe
M: 4/4
K: Gmajor
g2 G2 G2 dc|Bdgf gbag|a2 A2 A2 AG|FA d2 d2 ef|
gfed edcB|cBAG GFED|EGFA GBAc|B2 G2 G2:|
Bdgd Bdgd|e2 c2 c2 ed|^ceae ceae|f2 d2 d2 ef|
gfed edcB|cBAG GFED|EGFA GBAc|B2 G2 G2:|

